static/badge.svg

<svg width="98" height="108" viewBox="0 0 98 108" fill="none" xmlns="http://www.w3.org/2000/svg">
<path d="M68.8076 78.4705C69.1697 78.5982 69.6928 78.7686 70.2963 78.726C71.3021 78.6834 72.2275 78.2576 72.9517 77.4912C73.7162 76.6822 74.1185 75.6178 74.0783 74.5107C73.9978 67.4002 78.2627 61.1838 84.6197 59.0549C85.0623 58.9271 85.5049 58.6717 85.8267 58.4162C86.6717 57.735 87.1947 56.7557 87.3557 55.7338C87.5568 54.6268 87.2752 53.5197 86.6314 52.583C82.608 46.8775 82.608 39.2135 86.5912 33.5506L86.8728 33.21C87.0338 32.9971 87.1142 32.8268 87.1947 32.5713C87.235 32.5287 87.2752 32.3584 87.2752 32.3158C87.5971 31.2514 87.4764 30.1018 87.0338 29.165C86.551 28.1432 85.706 27.4193 84.7002 27.0787C78.3431 24.9498 74.0783 18.776 74.1588 11.708C74.1588 11.1971 74.0783 10.6861 73.9174 10.2604C73.5955 9.23848 72.8713 8.38691 71.9057 7.87598C70.94 7.40762 69.9342 7.36504 68.9685 7.70566C67.3994 8.25918 65.7498 8.55723 64.1002 8.55723C59.1916 8.47207 54.5646 5.95996 51.7482 1.74473C51.4666 1.31895 51.1447 0.978321 50.8228 0.76543C49.0525 -0.554492 46.558 -0.128711 45.3107 1.74473C42.4943 5.95996 37.8674 8.47207 32.999 8.47207C31.3494 8.47207 29.6998 8.17402 28.2111 7.62051C26.8834 7.10957 25.1533 7.49277 24.1072 8.64238C23.3428 9.45137 22.9404 10.5158 22.9807 11.6229C23.0611 18.7334 18.7963 24.9072 12.4392 27.0361C11.9967 27.1639 11.5943 27.3768 11.1517 27.7174C9.42167 29.0799 9.05956 31.7197 10.3471 33.5506C14.3705 39.2561 14.3705 46.9201 10.3471 52.6256C10.1057 53.0088 9.90448 53.4346 9.78378 53.8178C9.4619 54.8822 9.54237 55.9467 10.0654 57.0111C10.5885 57.9904 11.3932 58.7143 12.3588 59.0549C18.756 61.2264 22.9807 67.4428 22.9002 74.4256C22.86 74.9365 22.9404 75.4475 23.1014 75.9584C23.4232 76.9803 24.1475 77.8318 25.1131 78.3428C26.0385 78.8111 27.1248 78.8537 28.0904 78.5131C29.6998 77.9596 31.3494 77.6615 32.999 77.6615C37.9076 77.6615 42.3736 80.1311 45.2705 84.3889C45.5119 84.7721 45.8338 85.1127 46.1959 85.3682C46.8799 85.8791 47.6443 86.1346 48.4892 86.1346C48.7307 86.1346 48.9318 86.092 49.1732 86.092C50.2193 85.8791 51.1447 85.283 51.708 84.3889C55.6107 78.5982 62.4908 76.2139 68.8076 78.4705ZM48.5295 81.9619C44.9486 76.6396 39.1549 73.4463 33.0392 73.4463C30.9471 73.4463 28.8549 73.8295 26.8834 74.5533C27.0041 65.6119 21.6529 57.7775 13.606 55.0951C18.6756 47.8994 18.6756 38.1916 13.5658 31.0385C21.6529 28.3561 27.0443 20.5217 26.8834 11.6229C28.8549 12.3467 30.9068 12.6873 32.999 12.6873C39.1549 12.6873 44.9889 9.49395 48.4892 4.17168C52.0701 9.49395 57.8639 12.6873 64.06 12.6873C66.1521 12.6873 68.2041 12.3041 70.1353 11.6229C70.0549 20.5217 75.406 28.3135 83.4529 30.9107L83.4127 30.9533C78.3432 38.149 78.3834 47.8568 83.4931 55.01C75.406 57.6924 70.0146 65.5268 70.1353 74.4682H70.0951C62.0885 71.6154 53.3576 74.5959 48.5295 81.9619Z" fill="#1D4283"/>
<path d="M48.5295 23.8851C38.5513 23.8851 30.424 32.4859 30.424 43.0453C30.424 53.6046 38.5513 62.2054 48.5295 62.2054C58.5076 62.2054 66.6349 53.6046 66.6349 43.0453C66.6349 32.4859 58.5076 23.8851 48.5295 23.8851ZM48.5295 58.0328C40.724 58.0328 34.4072 51.3054 34.4072 43.0878C34.4072 34.8703 40.7642 28.1429 48.5295 28.1429C56.2947 28.1429 62.6517 34.8703 62.6517 43.0878C62.6517 51.3054 56.2947 58.0328 48.5295 58.0328Z" fill="#1D4283"/>
<path d="M34.9705 84.7724C34.0451 84.1337 32.7978 84.3891 32.1943 85.3684L22.5783 100.995L17.6295 90.3075C17.3076 89.5837 16.6236 89.1153 15.8592 89.1153L5.67986 89.0728L15.7385 72.7653C15.9396 72.4247 16.0603 72.0415 16.0603 71.6157C16.0603 70.4661 15.1752 69.5294 14.0486 69.5294C13.3244 69.5294 12.6806 69.9552 12.3588 70.5513L0.328688 90.052C-0.0736552 90.6907 -0.11389 91.5423 0.24822 92.2235C0.610329 92.9048 1.25408 93.3306 1.9783 93.3306L14.6119 93.3731L20.5666 106.232C20.8885 106.913 21.5322 107.381 22.2162 107.424C22.2564 107.424 22.2967 107.424 22.3369 107.424C23.0209 107.424 23.6244 107.083 23.9865 106.487L35.5338 87.7528C36.1775 86.731 35.8959 85.411 34.9705 84.7724Z" fill="#1D4283"/>
<path d="M96.7302 90.0513L84.6197 70.4228C84.0162 69.4435 82.7689 69.188 81.8435 69.8267C80.9181 70.4654 80.6767 71.7853 81.2802 72.7646L91.3791 89.1146L81.1595 89.1572C80.3951 89.1572 79.7111 89.6255 79.3892 90.3494L74.4404 101.036L64.7841 85.4103C64.1806 84.431 62.9334 84.1755 62.008 84.8142C61.0826 85.4529 60.8412 86.7728 61.4447 87.7521L73.0322 106.486C73.3943 107.083 74.0381 107.423 74.6818 107.423C74.722 107.423 74.7623 107.423 74.8025 107.423C75.5267 107.381 76.1705 106.912 76.4521 106.231L82.3666 93.3724L95.0002 93.3298C95.7244 93.3298 96.4084 92.904 96.7302 92.2228C97.1728 91.499 97.1326 90.69 96.7302 90.0513Z" fill="#1D4283"/>
</svg>

<svg width="98" height="108" fill="none" xmlns="http://www.w3.org/2000/svg"><path d="M68.808 78.47c.362.128.885.299 1.488.256 1.006-.043 1.931-.468 2.656-1.235a4.105 4.105 0 0 0 1.126-2.98c-.08-7.11 4.185-13.327 10.542-15.456a3.7 3.7 0 0 0 1.207-.639 4.308 4.308 0 0 0 1.529-2.682c.2-1.107-.08-2.214-.725-3.151-4.023-5.706-4.023-13.37-.04-19.032l.282-.341a1.89 1.89 0 0 0 .322-.639c.04-.042.08-.213.08-.255a4.455 4.455 0 0 0-.241-3.151 3.973 3.973 0 0 0-2.334-2.086c-6.357-2.13-10.622-8.303-10.541-15.371 0-.51-.08-1.022-.242-1.448a4.103 4.103 0 0 0-2.011-2.384 3.724 3.724 0 0 0-2.938-.17c-1.569.553-3.218.851-4.868.851-4.908-.085-9.535-2.597-12.352-6.812-.281-.426-.603-.767-.925-.98-1.77-1.32-4.265-.894-5.512.98-2.817 4.215-7.444 6.727-12.312 6.727-1.65 0-3.3-.298-4.788-.851-1.328-.511-3.058-.128-4.104 1.021a4.105 4.105 0 0 0-1.126 2.98c.08 7.111-4.185 13.285-10.542 15.414-.442.128-.845.34-1.287.681-1.73 1.363-2.092 4.003-.805 5.834a16.581 16.581 0 0 1 0 19.075 5.327 5.327 0 0 0-.563 1.192c-.322 1.064-.242 2.129.281 3.193.524.98 1.328 1.703 2.294 2.044 6.397 2.171 10.622 8.388 10.541 15.37-.04.511.04 1.023.201 1.533a4.103 4.103 0 0 0 2.012 2.385c.925.468 2.012.51 2.977.17 1.61-.553 3.26-.852 4.909-.852 4.909 0 9.375 2.47 12.271 6.728.242.383.564.724.926.98a3.74 3.74 0 0 0 2.293.766c.242 0 .443-.043.684-.043 1.046-.213 1.972-.809 2.535-1.703 3.903-5.79 10.783-8.175 17.1-5.918zm-20.279 3.492c-3.58-5.322-9.374-8.516-15.49-8.516a17.91 17.91 0 0 0-6.156 1.107c.121-8.941-5.23-16.775-13.277-19.458 5.07-7.196 5.07-16.903-.04-24.056 8.087-2.683 13.478-10.517 13.317-19.416A17.642 17.642 0 0 0 33 12.687c6.156 0 11.99-3.193 15.49-8.515 3.581 5.322 9.375 8.515 15.571 8.515 2.092 0 4.144-.383 6.075-1.064-.08 8.899 5.271 16.69 13.318 19.288l-.04.042c-5.07 7.196-5.03 16.904.08 24.057-8.087 2.682-13.478 10.517-13.358 19.458h-.04c-8.006-2.853-16.737.128-21.566 7.494z" fill="#1D4283"/><path d="M48.53 23.885c-9.979 0-18.106 8.6-18.106 19.16s8.127 19.16 18.105 19.16c9.979 0 18.106-8.6 18.106-19.16s-8.127-19.16-18.106-19.16zm0 34.148c-7.806 0-14.123-6.728-14.123-14.945 0-8.218 6.357-14.945 14.123-14.945 7.765 0 14.122 6.727 14.122 14.945 0 8.217-6.357 14.945-14.123 14.945zM34.97 84.772a1.938 1.938 0 0 0-2.776.596l-9.616 15.627-4.948-10.688c-.322-.723-1.006-1.192-1.77-1.192l-10.18-.042 10.059-16.308c.2-.34.321-.724.321-1.15 0-1.149-.885-2.086-2.011-2.086-.725 0-1.368.426-1.69 1.022L.329 90.052a2.2 2.2 0 0 0-.08 2.171c.361.682 1.005 1.108 1.73 1.108l12.633.042 5.955 12.859c.322.681.965 1.149 1.65 1.192h.12c.684 0 1.287-.341 1.65-.937l11.547-18.734c.644-1.022.362-2.342-.563-2.98zM96.73 90.051 84.62 70.423a1.939 1.939 0 0 0-2.776-.596c-.926.638-1.167 1.958-.564 2.938l10.1 16.35-10.22.042c-.765 0-1.449.469-1.77 1.192l-4.95 10.687-9.656-15.626a1.938 1.938 0 0 0-2.776-.596c-.925.639-1.167 1.959-.563 2.938l11.587 18.734a1.946 1.946 0 0 0 1.65.937h.12a1.922 1.922 0 0 0 1.65-1.192l5.915-12.859L95 93.33c.724 0 1.408-.426 1.73-1.107.443-.724.403-1.533 0-2.172z" fill="#1D4283"/></svg>
